!!!SOCIAL_FUNCTION:	songs with hunting dance
!!!PDT:	1956
!!!OTL: No_47_Cow_Creek_Hunting_Dance_Song_(n).krn
!!!LANG: Non-Tone
!!!LING_GROUP: Muskogean
!!!REG: Florida
**kern
*staff1
=1-
*clefF4
*k[b-]
*M2/4
4.c\
8d\
=2
2c\
=3
8c\L
[8B-\J
4B-\]
=4
8A\L
8A\J
8A\L
8F\J
=5!|:
4.c\
8c\
=6
4.A\
8F\
=7
4A\
8F\L
8F\J
=8
4F\
4F\
=9
4.A\
8c\
=10
4.A\
8F\
=11||
*M3/4
4A\
8F\L
8F\J
4F\
=12||
*M2/4
2F\
=13
2r
=14
[2D\
=15
4D\]
8D\
16r
16F\
=16
[2F\
=17
4F\]
4F\
==:|!
*-
